X:2
T:I Got It Bad
C:Duke Ellington
L:1/4
M:C
I:linebreak $
K:G
"G" ^C D"Am" e d |"Bm" F G"Em" A G |"A7" z B"Em" G A |"Co" B4 "C#ø" x4|"C" z B"Bm" G A |$
"Am" B d"Ab7" G B ||1"G6" G4 "G#o" x4|"Am" z4 "Ab7" x4:|2"G6" G2"Em" z2 "Ebm" x4|"Dm" z2 z G "Db7" x4||$
"C6" A B d c | B A2 G |"Cm6" A B d c |"F7" A3 B |"G" F G"Am" B d |$"Bm" f"Bb7" e2 B |"Am" d c2 E |
"D7" B "_D.C. al 3rd end." A3 ||3"G6" G4- | G4 |]

